; generated by PrusaSlicer 2.5.0+win64 on 2022-12-20 at 20:28:29 UTC


;
;

;
;
; TODO: check the size of the extruder and the y-bar clearance. Optimize & test supports.

; external perimeters extrusion width = 0.42mm
; perimeters extrusion width = 0.44mm
; infill extrusion width = 0.44mm
; solid infill extrusion width = 0.44mm
; top infill extrusion width = 0.44mm
; first layer extrusion width = 0.56mm

M107
M190 S100 ; set bed temperature and wait for it to be reached
M104 S245 ; set temperature
;TYPE:Custom
; M190 S0
; M109 S0 ; uncomment to remove set&wait temp gcode added automatically after this start gcode
print_start EXTRUDER=245 BED=100
M109 S245 ; set temperature and wait for it to be reached
G21 ; set units to millimeters
G90 ; use absolute coordinates
M83 ; use relative distances for extrusion
M107
;LAYER_CHANGE
;Z:0.2
;HEIGHT:0.2
;BEFORE_LAYER_CHANGE
;0.2
;LAYER=0;
G92 E0
BEFORE_LAYER_CHANGE HEIGHT=0.2 
LAYER=0

G1 Z.2 F18000
;AFTER_LAYER_CHANGE
;0.2
AFTER_LAYER_CHANGE
G1 E-.75 F3000
G1 Z.6 F18000
G1 X97.454 Y114.379
G1 Z.2
G1 E.75 F1800
M204 S1000
;TYPE:Skirt/Brim
;WIDTH:0.56
G1 X99.134 Y113.288 E.08615
G1 X101 Y112.932 E.08166
G1 X147 Y112.932 E1.97779
G1 X148.964 Y113.328 E.08615
G1 X150.621 Y114.454 E.08615
G1 X151.712 Y116.134 E.08615
G1 X152.068 Y118 E.08166
G1 X152.068 Y132 E.60193
G1 X151.672 Y133.964 E.08615
G1 X150.546 Y135.621 E.08615
G1 X148.866 Y136.712 E.08615
G1 X147 Y137.068 E.08166
G1 X101 Y137.068 E1.97779
G1 X99.036 Y136.672 E.08615
G1 X97.379 Y135.546 E.08615
G1 X96.288 Y133.866 E.08615
G1 X95.932 Y132 E.08166
G1 X95.932 Y118 E.60193
G1 X96.328 Y116.036 E.08615
G1 X97.42 Y114.428 E.08357
M204 S3000
G1 X97.861 Y114.75 F18000
M204 S1000
G1 F1800
G1 X97.962 Y114.611 E.0074
G1 X99.609 Y113.667 E.08159
G1 X101 Y113.449 E.06056
G1 X147 Y113.449 E1.97779
G1 X148.856 Y113.844 E.08159
G1 X150.389 Y114.962 E.08159
G1 X151.333 Y116.609 E.08159
G1 X151.551 Y118 E.06056
G1 X151.551 Y132 E.60193
G1 X151.156 Y133.856 E.08159
G1 X150.038 Y135.389 E.08159
G1 X148.391 Y136.333 E.08159
G1 X147 Y136.551 E.06056
G1 X101 Y136.551 E1.97779
G1 X99.144 Y136.156 E.08159
G1 X97.611 Y135.038 E.08159
G1 X96.667 Y133.391 E.08159
G1 X96.449 Y132 E.06056
G1 X96.449 Y118 E.60193
G1 X96.844 Y116.144 E.08159
G1 X97.826 Y114.798 E.07161
M204 S3000
G1 X98.251 Y115.134 F18000
M204 S1000
G1 F1800
G1 X98.469 Y114.859 E.01511
G1 X100.072 Y114.074 E.07676
G1 X101 Y113.966 E.04016
G1 X147 Y113.966 E1.97779
G1 X148.741 Y114.361 E.07676
G1 X150.141 Y115.469 E.07676
G1 X150.926 Y117.072 E.07676
G1 X151.034 Y118 E.04016
G1 X151.034 Y132 E.60193
G1 X150.639 Y133.741 E.07676
G1 X149.531 Y135.141 E.07676
G1 X147.928 Y135.926 E.07676
G1 X147 Y136.034 E.04016
G1 X101 Y136.034 E1.97779
G1 X99.259 Y135.639 E.07676
G1 X97.859 Y134.531 E.07676
G1 X97.074 Y132.928 E.07676
G1 X96.966 Y132 E.04016
G1 X96.966 Y118 E.60193
G1 X97.361 Y116.259 E.07676
G1 X98.213 Y115.181 E.05907
M204 S3000
G1 X98.617 Y115.533 F18000
M204 S1000
G1 F1800
G1 X98.972 Y115.127 E.02321
G1 X101 Y114.483 E.09149
G1 X147 Y114.483 E1.97779
G1 X148.618 Y114.877 E.07161
G1 X149.873 Y115.972 E.07161
G1 X150.517 Y118 E.09149
G1 X150.517 Y132 E.60193
G1 X150.123 Y133.618 E.07161
G1 X149.028 Y134.873 E.07161
G1 X147 Y135.517 E.09149
G1 X101 Y135.517 E1.97779
G1 X99.382 Y135.123 E.07161
G1 X98.127 Y134.028 E.07161
G1 X97.483 Y132 E.09149
G1 X97.483 Y118 E.60193
G1 X97.877 Y116.382 E.07161
G1 X98.578 Y115.579 E.04582
M204 S3000
G1 E-.75 F3000
G1 Z.6 F18000
G1 X102.414 Y119.414
G1 Z.2
G1 E.75 F1800
M204 S1000
;TYPE:Perimeter
;WIDTH:0.559999
G1 X145.586 Y119.414 E1.85618
G1 X145.586 Y130.586 E.48033
G1 X102.414 Y130.586 E1.85618
G1 X102.414 Y119.474 E.47775
M204 S3000
G1 X101.897 Y118.897 F18000
M204 S1000
G1 F1800
G1 X146.103 Y118.897 E1.90064
G1 X146.103 Y131.103 E.52479
G1 X101.897 Y131.103 E1.90064
G1 X101.897 Y118.957 E.52221
M204 S3000
G1 X101.38 Y118.38 F18000
M204 S1000
;TYPE:External perimeter
G1 F1800
G1 X146.62 Y118.38 E1.94511
G1 X146.62 Y131.62 E.56926
G1 X101.38 Y131.62 E1.94511
G1 X101.38 Y118.44 E.56668
M204 S3000
G1 X101.778 Y118.418 F18000
G1 E-.75 F3000
G1 Z.6 F18000
G1 X144.353 Y119.595
G1 Z.2
G1 E.75 F1800
M204 S1000
;TYPE:Solid infill
;WIDTH:0.563301
G1 X145.172 Y120.415 E.05015
G1 X145.172 Y121.151 E.03184
G1 X143.849 Y119.828 E.08095
G1 X143.113 Y119.828 E.03184
G1 X145.172 Y121.887 E.12598
G1 X145.172 Y122.622 E.03184
G1 X142.378 Y119.828 E.17101
G1 X141.642 Y119.828 E.03184
G1 X145.172 Y123.358 E.21605
G1 X145.172 Y124.094 E.03184
G1 X140.906 Y119.828 E.26108
G1 X140.17 Y119.828 E.03184
G1 X145.172 Y124.83 E.30611
G1 X145.172 Y125.566 E.03184
G1 X139.434 Y119.828 E.35115
G1 X138.698 Y119.828 E.03184
G1 X145.172 Y126.302 E.39618
G1 X145.172 Y127.038 E.03184
G1 X137.962 Y119.828 E.44122
G1 X137.226 Y119.828 E.03184
G1 X145.172 Y127.774 E.48625
G1 X145.172 Y128.51 E.03184
G1 X136.49 Y119.828 E.53128
G1 X135.754 Y119.828 E.03184
G1 X145.172 Y129.246 E.57632
G1 X145.172 Y129.982 E.03184
G1 X135.018 Y119.828 E.62135
G1 X134.282 Y119.828 E.03184
G1 X144.627 Y130.172 E.633
G1 X143.891 Y130.172 E.03184
G1 X133.546 Y119.828 E.633
G1 X132.81 Y119.828 E.03184
G1 X143.155 Y130.172 E.633
G1 X142.419 Y130.172 E.03184
G1 X132.074 Y119.828 E.633
G1 X131.339 Y119.828 E.03184
G1 X141.683 Y130.172 E.633
G1 X140.947 Y130.172 E.03184
G1 X130.603 Y119.828 E.633
G1 X129.867 Y119.828 E.03184
G1 X140.211 Y130.172 E.633
G1 X139.475 Y130.172 E.03184
G1 X129.131 Y119.828 E.633
G1 X128.395 Y119.828 E.03184
G1 X138.739 Y130.172 E.633
G1 X138.003 Y130.172 E.03184
G1 X127.659 Y119.828 E.633
G1 X126.923 Y119.828 E.03184
G1 X137.267 Y130.172 E.633
G1 X136.531 Y130.172 E.03184
G1 X126.187 Y119.828 E.633
G1 X125.451 Y119.828 E.03184
G1 X135.796 Y130.172 E.633
G1 X135.06 Y130.172 E.03184
G1 X124.715 Y119.828 E.633
G1 X123.979 Y119.828 E.03184
G1 X134.324 Y130.172 E.633
G1 X133.588 Y130.172 E.03184
G1 X123.243 Y119.828 E.633
G1 X122.507 Y119.828 E.03184
G1 X132.852 Y130.172 E.633
G1 X132.116 Y130.172 E.03184
G1 X121.771 Y119.828 E.633
G1 X121.036 Y119.828 E.03184
G1 X131.38 Y130.172 E.633
G1 X130.644 Y130.172 E.03184
G1 X120.3 Y119.828 E.633
G1 X119.564 Y119.828 E.03184
G1 X129.908 Y130.172 E.633
G1 X129.172 Y130.172 E.03184
G1 X118.828 Y119.828 E.633
G1 X118.092 Y119.828 E.03184
G1 X128.436 Y130.172 E.633
G1 X127.7 Y130.172 E.03184
G1 X117.356 Y119.828 E.633
G1 X116.62 Y119.828 E.03184
G1 X126.964 Y130.172 E.633
G1 X126.228 Y130.172 E.03184
G1 X115.884 Y119.828 E.633
G1 X115.148 Y119.828 E.03184
G1 X125.492 Y130.172 E.633
G1 X124.757 Y130.172 E.03184
G1 X114.412 Y119.828 E.633
G1 X113.676 Y119.828 E.03184
G1 X124.021 Y130.172 E.633
G1 X123.285 Y130.172 E.03184
G1 X112.94 Y119.828 E.633
G1 X112.204 Y119.828 E.03184
G1 X122.549 Y130.172 E.633
G1 X121.813 Y130.172 E.03184
G1 X111.468 Y119.828 E.633
G1 X110.733 Y119.828 E.03184
G1 X121.077 Y130.172 E.633
G1 X120.341 Y130.172 E.03184
G1 X109.997 Y119.828 E.633
G1 X109.261 Y119.828 E.03184
G1 X119.605 Y130.172 E.633
G1 X118.869 Y130.172 E.03184
G1 X108.525 Y119.828 E.633
G1 X107.789 Y119.828 E.03184
G1 X118.133 Y130.172 E.633
G1 X117.397 Y130.172 E.03184
G1 X107.053 Y119.828 E.633
G1 X106.317 Y119.828 E.03184
G1 X116.661 Y130.172 E.633
G1 X115.925 Y130.172 E.03184
G1 X105.581 Y119.828 E.633
G1 X104.845 Y119.828 E.03184
G1 X115.189 Y130.172 E.633
G1 X114.454 Y130.172 E.03184
G1 X104.109 Y119.828 E.633
G1 X103.373 Y119.828 E.03184
G1 X113.718 Y130.172 E.633
G1 X112.982 Y130.172 E.03184
G1 X102.828 Y120.018 E.62134
G1 X102.828 Y120.754 E.03184
G1 X112.246 Y130.172 E.57631
G1 X111.51 Y130.172 E.03184
G1 X102.828 Y121.49 E.53128
G1 X102.828 Y122.226 E.03184
G1 X110.774 Y130.172 E.48624
G1 X110.038 Y130.172 E.03184
G1 X102.828 Y122.962 E.44121
G1 X102.828 Y123.698 E.03184
G1 X109.302 Y130.172 E.39618
G1 X108.566 Y130.172 E.03184
G1 X102.828 Y124.434 E.35114
G1 X102.828 Y125.17 E.03184
G1 X107.83 Y130.172 E.30611
G1 X107.094 Y130.172 E.03184
G1 X102.828 Y125.906 E.26108
G1 X102.828 Y126.642 E.03184
G1 X106.358 Y130.172 E.21604
G1 X105.622 Y130.172 E.03184
G1 X102.828 Y127.378 E.17101
G1 X102.828 Y128.114 E.03184
G1 X104.886 Y130.172 E.12597
G1 X104.151 Y130.172 E.03184
G1 X102.828 Y128.849 E.08094
G1 X102.828 Y129.585 E.03184
G1 X103.647 Y130.405 E.05015
M204 S3000
;LAYER_CHANGE
;Z:0.4
;HEIGHT:0.2
;BEFORE_LAYER_CHANGE
;0.4
;LAYER=1;
G92 E0
BEFORE_LAYER_CHANGE HEIGHT=0.4 
LAYER=1

G1 Z.4 F18000
;AFTER_LAYER_CHANGE
;0.4
AFTER_LAYER_CHANGE
M104 S240 ; set temperature
M140 S95 ; set bed temperature
G1 X101.994 Y131.006
M204 S2000
;TYPE:Perimeter
;WIDTH:0.439999
G1 F6000
G1 X101.994 Y118.994 E.39659
G1 X146.006 Y118.994 E1.45314
G1 X146.006 Y131.006 E.39659
G1 X102.054 Y131.006 E1.45116
M204 S3000
G1 X101.597 Y131.403 F18000
M204 S2000
G1 F6000
G1 X101.597 Y118.597 E.42281
G1 X146.403 Y118.597 E1.47937
G1 X146.403 Y131.403 E.42281
G1 X101.657 Y131.403 E1.47738
M204 S3000
G1 X101.21 Y131.79 F18000
M204 S2000
;TYPE:External perimeter
;WIDTH:0.419999
G1 F2400
G1 X101.21 Y118.21 E.42579
G1 X146.79 Y118.21 E1.42913
G1 X146.79 Y131.79 E.42579
G1 X101.27 Y131.79 E1.42725
M204 S3000
G1 X101.376 Y131.426 F18000
G1 X145.056 Y130.867
M204 S4000
;TYPE:Solid infill
;WIDTH:0.443711
G1 F7200
G1 X145.688 Y130.235 E.02978
G1 X145.688 Y129.668 E.01889
G1 X144.668 Y130.688 E.04807
G1 X144.101 Y130.688 E.01889
G1 X145.688 Y129.101 E.07479
G1 X145.688 Y128.535 E.01889
G1 X143.535 Y130.688 E.1015
G1 X142.968 Y130.688 E.01889
G1 X145.688 Y127.968 E.12821
G1 X145.688 Y127.401 E.01889
G1 X142.401 Y130.688 E.15493
G1 X141.834 Y130.688 E.01889
G1 X145.688 Y126.834 E.18164
G1 X145.688 Y126.267 E.01889
G1 X141.267 Y130.688 E.20835
G1 X140.701 Y130.688 E.01889
G1 X145.688 Y125.701 E.23507
G1 X145.688 Y125.134 E.01889
G1 X140.134 Y130.688 E.26178
G1 X139.567 Y130.688 E.01889
G1 X145.688 Y124.567 E.28849
G1 X145.688 Y124 E.01889
G1 X139 Y130.688 E.31521
G1 X138.433 Y130.688 E.01889
G1 X145.688 Y123.433 E.34192
G1 X145.688 Y122.867 E.01889
G1 X137.867 Y130.688 E.36863
G1 X137.3 Y130.688 E.01889
G1 X145.688 Y122.3 E.39535
G1 X145.688 Y121.733 E.01889
G1 X136.733 Y130.688 E.42206
G1 X136.166 Y130.688 E.01889
G1 X145.688 Y121.166 E.44877
G1 X145.688 Y120.599 E.01889
G1 X135.599 Y130.688 E.47549
G1 X135.033 Y130.688 E.01889
G1 X145.688 Y120.033 E.5022
G1 X145.688 Y119.466 E.01889
G1 X134.466 Y130.688 E.52891
G1 X133.899 Y130.688 E.01889
G1 X145.275 Y119.312 E.53617
G1 X144.708 Y119.312 E.01889
G1 X133.332 Y130.688 E.53617
G1 X132.765 Y130.688 E.01889
G1 X144.142 Y119.312 E.53617
G1 X143.575 Y119.312 E.01889
G1 X132.198 Y130.688 E.53617
G1 X131.632 Y130.688 E.01889
G1 X143.008 Y119.312 E.53617
G1 X142.441 Y119.312 E.01889
G1 X131.065 Y130.688 E.53617
G1 X130.498 Y130.688 E.01889
G1 X141.874 Y119.312 E.53617
G1 X141.308 Y119.312 E.01889
G1 X129.931 Y130.688 E.53617
G1 X129.364 Y130.688 E.01889
G1 X140.741 Y119.312 E.53617
G1 X140.174 Y119.312 E.01889
G1 X128.798 Y130.688 E.53617
G1 X128.231 Y130.688 E.01889
G1 X139.607 Y119.312 E.53617
G1 X139.04 Y119.312 E.01889
G1 X127.664 Y130.688 E.53617
G1 X127.097 Y130.688 E.01889
G1 X138.474 Y119.312 E.53617
G1 X137.907 Y119.312 E.01889
G1 X126.53 Y130.688 E.53617
G1 X125.964 Y130.688 E.01889
G1 X137.34 Y119.312 E.53617
G1 X136.773 Y119.312 E.01889
G1 X125.397 Y130.688 E.53617
G1 X124.83 Y130.688 E.01889
G1 X136.206 Y119.312 E.53617
G1 X135.64 Y119.312 E.01889
G1 X124.263 Y130.688 E.53617
G1 X123.696 Y130.688 E.01889
G1 X135.073 Y119.312 E.53617
G1 X134.506 Y119.312 E.01889
G1 X123.13 Y130.688 E.53617
G1 X122.563 Y130.688 E.01889
G1 X133.939 Y119.312 E.53617
G1 X133.372 Y119.312 E.01889
G1 X121.996 Y130.688 E.53617
G1 X121.429 Y130.688 E.01889
G1 X132.806 Y119.312 E.53617
G1 X132.239 Y119.312 E.01889
G1 X120.862 Y130.688 E.53617
G1 X120.296 Y130.688 E.01889
G1 X131.672 Y119.312 E.53617
G1 X131.105 Y119.312 E.01889
G1 X119.729 Y130.688 E.53617
G1 X119.162 Y130.688 E.01889
G1 X130.538 Y119.312 E.53617
G1 X129.972 Y119.312 E.01889
G1 X118.595 Y130.688 E.53617
G1 X118.028 Y130.688 E.01889
G1 X129.405 Y119.312 E.53617
G1 X128.838 Y119.312 E.01889
G1 X117.462 Y130.688 E.53617
G1 X116.895 Y130.688 E.01889
G1 X128.271 Y119.312 E.53617
G1 X127.704 Y119.312 E.01889
G1 X116.328 Y130.688 E.53617
G1 X115.761 Y130.688 E.01889
G1 X127.138 Y119.312 E.53617
G1 X126.571 Y119.312 E.01889
G1 X115.194 Y130.688 E.53617
G1 X114.628 Y130.688 E.01889
G1 X126.004 Y119.312 E.53617
G1 X125.437 Y119.312 E.01889
G1 X114.061 Y130.688 E.53617
G1 X113.494 Y130.688 E.01889
G1 X124.87 Y119.312 E.53617
G1 X124.304 Y119.312 E.01889
G1 X112.927 Y130.688 E.53617
G1 X112.36 Y130.688 E.01889
G1 X123.737 Y119.312 E.53617
G1 X123.17 Y119.312 E.01889
G1 X111.794 Y130.688 E.53617
G1 X111.227 Y130.688 E.01889
G1 X122.603 Y119.312 E.53617
G1 X122.036 Y119.312 E.01889
G1 X110.66 Y130.688 E.53617
G1 X110.093 Y130.688 E.01889
G1 X121.469 Y119.312 E.53617
G1 X120.903 Y119.312 E.01889
G1 X109.526 Y130.688 E.53617
G1 X108.96 Y130.688 E.01889
G1 X120.336 Y119.312 E.53617
G1 X119.769 Y119.312 E.01889
G1 X108.393 Y130.688 E.53617
G1 X107.826 Y130.688 E.01889
G1 X119.202 Y119.312 E.53617
G1 X118.635 Y119.312 E.01889
G1 X107.259 Y130.688 E.53617
G1 X106.692 Y130.688 E.01889
G1 X118.069 Y119.312 E.53617
G1 X117.502 Y119.312 E.01889
G1 X106.125 Y130.688 E.53617
G1 X105.559 Y130.688 E.01889
G1 X116.935 Y119.312 E.53617
G1 X116.368 Y119.312 E.01889
G1 X104.992 Y130.688 E.53617
G1 X104.425 Y130.688 E.01889
G1 X115.801 Y119.312 E.53617
G1 X115.235 Y119.312 E.01889
G1 X103.858 Y130.688 E.53617
G1 X103.291 Y130.688 E.01889
G1 X114.668 Y119.312 E.53617
G1 X114.101 Y119.312 E.01889
G1 X102.725 Y130.688 E.53617
G1 X102.312 Y130.688 E.01376
G1 X102.312 Y130.534 E.00513
G1 X113.534 Y119.312 E.52891
G1 X112.967 Y119.312 E.01889
G1 X102.312 Y129.967 E.5022
G1 X102.312 Y129.401 E.01889
G1 X112.401 Y119.312 E.47548
G1 X111.834 Y119.312 E.01889
G1 X102.312 Y128.834 E.44877
G1 X102.312 Y128.267 E.01889
G1 X111.267 Y119.312 E.42206
G1 X110.7 Y119.312 E.01889
G1 X102.312 Y127.7 E.39534
G1 X102.312 Y127.133 E.01889
G1 X110.133 Y119.312 E.36863
G1 X109.567 Y119.312 E.01889
G1 X102.312 Y126.567 E.34192
G1 X102.312 Y126 E.01889
G1 X109 Y119.312 E.3152
G1 X108.433 Y119.312 E.01889
G1 X102.312 Y125.433 E.28849
G1 X102.312 Y124.866 E.01889
G1 X107.866 Y119.312 E.26178
G1 X107.299 Y119.312 E.01889
G1 X102.312 Y124.299 E.23506
G1 X102.312 Y123.733 E.01889
G1 X106.733 Y119.312 E.20835
G1 X106.166 Y119.312 E.01889
G1 X102.312 Y123.166 E.18164
G1 X102.312 Y122.599 E.01889
G1 X105.599 Y119.312 E.15492
G1 X105.032 Y119.312 E.01889
G1 X102.312 Y122.032 E.12821
G1 X102.312 Y121.465 E.01889
G1 X104.465 Y119.312 E.1015
G1 X103.899 Y119.312 E.01889
G1 X102.312 Y120.899 E.07478
G1 X102.312 Y120.332 E.01889
G1 X103.332 Y119.312 E.04807
G1 X102.765 Y119.312 E.01889
G1 X102.133 Y119.944 E.02978
M204 S3000
;LAYER_CHANGE
;Z:0.6
;HEIGHT:0.2
;BEFORE_LAYER_CHANGE
;0.6
;LAYER=2;
G92 E0
BEFORE_LAYER_CHANGE HEIGHT=0.6 
LAYER=2

G1 Z.6 F18000
;AFTER_LAYER_CHANGE
;0.6
AFTER_LAYER_CHANGE
G1 X101.994 Y118.994
M204 S2000
;TYPE:Perimeter
;WIDTH:0.439999
G1 F6000
G1 X146.006 Y118.994 E1.45314
G1 X146.006 Y131.006 E.39659
G1 X101.994 Y131.006 E1.45314
G1 X101.994 Y119.054 E.39461
M204 S3000
G1 X101.597 Y118.597 F18000
M204 S2000
G1 F6000
G1 X146.403 Y118.597 E1.47937
G1 X146.403 Y131.403 E.42281
G1 X101.597 Y131.403 E1.47937
G1 X101.597 Y118.657 E.42083
M204 S3000
G1 X101.21 Y118.21 F18000
M204 S2000
;TYPE:External perimeter
;WIDTH:0.419999
G1 F2400
G1 X146.79 Y118.21 E1.42913
G1 X146.79 Y131.79 E.42579
G1 X101.21 Y131.79 E1.42913
