; generated by PrusaSlicer 2.5.0+win64 on 2022-12-21 at 03:48:13 UTC


;
;

;
;
; TODO: check the size of the extruder and the y-bar clearance. Optimize & test supports.

; external perimeters extrusion width = 0.42mm
; perimeters extrusion width = 0.44mm
; infill extrusion width = 0.44mm
; solid infill extrusion width = 0.44mm
; top infill extrusion width = 0.44mm
; first layer extrusion width = 0.56mm

M107
M190 S110 ; set bed temperature and wait for it to be reached
M104 S250 ; set temperature
;TYPE:Custom
; M190 S0
; M109 S0 ; uncomment to remove set&wait temp gcode added automatically after this start gcode
print_start EXTRUDER=250 BED=110
M109 S250 ; set temperature and wait for it to be reached
G21 ; set units to millimeters
G90 ; use absolute coordinates
M83 ; use relative distances for extrusion
M107
;LAYER_CHANGE
;Z:0.2
;HEIGHT:0.2
;BEFORE_LAYER_CHANGE
;0.2
;LAYER=0;
G92 E0
BEFORE_LAYER_CHANGE HEIGHT=0.2 LAYER=0

G1 Z.2 F18000
;AFTER_LAYER_CHANGE
;0.2
AFTER_LAYER_CHANGE
G1 E-.75 F3000
G1 Z.6 F18000
G1 X37.779 Y179.143
G1 Z.2
G1 E.75 F1800
M204 S1000
;TYPE:Skirt/Brim
;WIDTH:0.56
G1 X39.644 Y178.788 E.08166
G1 X85.644 Y178.788 E1.97779
G1 X87.608 Y179.184 E.08615
G1 X89.265 Y180.31 E.08615
G1 X90.357 Y181.99 E.08615
G1 X90.713 Y183.856 E.08166
G1 X90.713 Y197.856 E.60193
G1 X90.316 Y199.82 E.08615
G1 X89.19 Y201.477 E.08615
G1 X87.51 Y202.568 E.08615
G1 X85.644 Y202.924 E.08166
G1 X39.644 Y202.924 E1.97779
G1 X37.68 Y202.528 E.08615
G1 X36.023 Y201.402 E.08615
G1 X34.932 Y199.721 E.08615
G1 X34.576 Y197.856 E.08166
G1 X34.576 Y183.856 E.60193
G1 X34.972 Y181.892 E.08615
G1 X36.098 Y180.235 E.08615
G1 X37.728 Y179.176 E.08357
M204 S3000
G1 X38.008 Y179.663 F18000
M204 S1000
G1 F1800
G1 X38.253 Y179.523 E.01215
G1 X39.644 Y179.305 E.06056
G1 X85.644 Y179.305 E1.97779
G1 X87.5 Y179.7 E.08159
G1 X89.033 Y180.818 E.08159
G1 X89.977 Y182.464 E.08159
G1 X90.195 Y183.856 E.06056
G1 X90.195 Y197.856 E.60193
G1 X89.8 Y199.712 E.08159
G1 X88.682 Y201.245 E.08159
G1 X87.036 Y202.189 E.08159
G1 X85.644 Y202.407 E.06056
G1 X39.644 Y202.407 E1.97779
G1 X37.788 Y202.012 E.08159
G1 X36.255 Y200.894 E.08159
G1 X35.311 Y199.247 E.08159
G1 X35.093 Y197.856 E.06056
G1 X35.093 Y183.856 E.60193
G1 X35.489 Y182 E.08159
G1 X36.607 Y180.467 E.08159
G1 X37.956 Y179.693 E.06686
M204 S3000
G1 X38.196 Y180.185 F18000
M204 S1000
G1 F1800
G1 X38.716 Y179.93 E.0249
G1 X39.644 Y179.822 E.04016
G1 X85.644 Y179.822 E1.97779
G1 X87.385 Y180.217 E.07676
G1 X88.785 Y181.325 E.07676
G1 X89.57 Y182.928 E.07676
G1 X89.678 Y183.856 E.04016
G1 X89.678 Y197.856 E.60193
G1 X89.283 Y199.597 E.07676
G1 X88.176 Y200.997 E.07676
G1 X86.572 Y201.782 E.07676
G1 X85.644 Y201.89 E.04016
G1 X39.644 Y201.89 E1.97779
G1 X37.903 Y201.495 E.07676
G1 X36.503 Y200.387 E.07676
G1 X35.718 Y198.784 E.07676
G1 X35.61 Y197.856 E.04016
G1 X35.61 Y183.856 E.60193
G1 X36.005 Y182.115 E.07676
G1 X37.113 Y180.715 E.07676
G1 X38.142 Y180.211 E.04928
M204 S3000
G1 X38.317 Y180.76 F18000
M204 S1000
G1 F1800
G1 X39.644 Y180.339 E.05988
G1 X85.644 Y180.339 E1.97779
G1 X87.262 Y180.733 E.07161
G1 X88.518 Y181.828 E.07161
G1 X89.161 Y183.856 E.09149
G1 X89.161 Y197.856 E.60193
G1 X88.767 Y199.474 E.07161
G1 X87.672 Y200.729 E.07161
G1 X85.644 Y201.373 E.09149
G1 X39.644 Y201.373 E1.97779
G1 X38.026 Y200.979 E.07161
G1 X36.771 Y199.884 E.07161
G1 X36.127 Y197.856 E.09149
G1 X36.127 Y183.856 E.60193
G1 X36.521 Y182.238 E.07161
G1 X37.616 Y180.983 E.07161
G1 X38.259 Y180.778 E.02903
M204 S3000
G1 E-.75 F3000
G1 Z.6 F18000
G1 X41.058 Y185.27
G1 Z.2
G1 E.75 F1800
M204 S1000
;TYPE:Perimeter
;WIDTH:0.559999
G1 X84.23 Y185.27 E1.85618
G1 X84.23 Y196.442 E.48033
G1 X41.058 Y196.442 E1.85618
G1 X41.058 Y185.33 E.47775
M204 S3000
G1 X40.541 Y184.753 F18000
M204 S1000
G1 F1800
G1 X84.747 Y184.753 E1.90064
G1 X84.747 Y196.959 E.52479
G1 X40.541 Y196.959 E1.90064
G1 X40.541 Y184.813 E.52221
M204 S3000
G1 X40.024 Y184.236 F18000
M204 S1000
;TYPE:External perimeter
G1 F1800
G1 X85.264 Y184.236 E1.94511
G1 X85.264 Y197.476 E.56926
G1 X40.024 Y197.476 E1.94511
G1 X40.024 Y184.296 E.56668
M204 S3000
G1 X40.422 Y184.274 F18000
G1 E-.75 F3000
G1 Z.6 F18000
G1 X82.997 Y185.451
G1 Z.2
G1 E.75 F1800
M204 S1000
;TYPE:Solid infill
;WIDTH:0.563301
G1 X83.816 Y186.271 E.05015
G1 X83.816 Y187.007 E.03184
G1 X82.494 Y185.684 E.08095
G1 X81.758 Y185.684 E.03184
G1 X83.816 Y187.743 E.12598
G1 X83.816 Y188.478 E.03184
G1 X81.022 Y185.684 E.17101
G1 X80.286 Y185.684 E.03184
G1 X83.816 Y189.214 E.21605
G1 X83.816 Y189.95 E.03184
G1 X79.55 Y185.684 E.26108
G1 X78.814 Y185.684 E.03184
G1 X83.816 Y190.686 E.30611
G1 X83.816 Y191.422 E.03184
G1 X78.078 Y185.684 E.35115
G1 X77.342 Y185.684 E.03184
G1 X83.816 Y192.158 E.39618
G1 X83.816 Y192.894 E.03184
G1 X76.606 Y185.684 E.44122
G1 X75.87 Y185.684 E.03184
G1 X83.816 Y193.63 E.48625
G1 X83.816 Y194.366 E.03184
G1 X75.134 Y185.684 E.53128
G1 X74.398 Y185.684 E.03184
G1 X83.816 Y195.102 E.57632
G1 X83.816 Y195.838 E.03184
G1 X73.662 Y185.684 E.62135
G1 X72.926 Y185.684 E.03184
G1 X83.271 Y196.028 E.633
G1 X82.535 Y196.028 E.03184
G1 X72.191 Y185.684 E.633
G1 X71.455 Y185.684 E.03184
G1 X81.799 Y196.028 E.633
G1 X81.063 Y196.028 E.03184
G1 X70.719 Y185.684 E.633
G1 X69.983 Y185.684 E.03184
G1 X80.327 Y196.028 E.633
G1 X79.591 Y196.028 E.03184
G1 X69.247 Y185.684 E.633
G1 X68.511 Y185.684 E.03184
G1 X78.855 Y196.028 E.633
G1 X78.119 Y196.028 E.03184
G1 X67.775 Y185.684 E.633
G1 X67.039 Y185.684 E.03184
G1 X77.383 Y196.028 E.633
G1 X76.647 Y196.028 E.03184
G1 X66.303 Y185.684 E.633
G1 X65.567 Y185.684 E.03184
G1 X75.912 Y196.028 E.633
G1 X75.176 Y196.028 E.03184
G1 X64.831 Y185.684 E.633
G1 X64.095 Y185.684 E.03184
G1 X74.44 Y196.028 E.633
G1 X73.704 Y196.028 E.03184
G1 X63.359 Y185.684 E.633
G1 X62.623 Y185.684 E.03184
G1 X72.968 Y196.028 E.633
G1 X72.232 Y196.028 E.03184
G1 X61.888 Y185.684 E.633
G1 X61.152 Y185.684 E.03184
G1 X71.496 Y196.028 E.633
G1 X70.76 Y196.028 E.03184
G1 X60.416 Y185.684 E.633
G1 X59.68 Y185.684 E.03184
G1 X70.024 Y196.028 E.633
G1 X69.288 Y196.028 E.03184
G1 X58.944 Y185.684 E.633
G1 X58.208 Y185.684 E.03184
G1 X68.552 Y196.028 E.633
G1 X67.816 Y196.028 E.03184
G1 X57.472 Y185.684 E.633
G1 X56.736 Y185.684 E.03184
G1 X67.08 Y196.028 E.633
G1 X66.344 Y196.028 E.03184
G1 X56 Y185.684 E.633
G1 X55.264 Y185.684 E.03184
G1 X65.609 Y196.028 E.633
G1 X64.873 Y196.028 E.03184
G1 X54.528 Y185.684 E.633
G1 X53.792 Y185.684 E.03184
G1 X64.137 Y196.028 E.633
G1 X63.401 Y196.028 E.03184
G1 X53.056 Y185.684 E.633
G1 X52.32 Y185.684 E.03184
G1 X62.665 Y196.028 E.633
G1 X61.929 Y196.028 E.03184
G1 X51.585 Y185.684 E.633
G1 X50.849 Y185.684 E.03184
G1 X61.193 Y196.028 E.633
G1 X60.457 Y196.028 E.03184
G1 X50.113 Y185.684 E.633
G1 X49.377 Y185.684 E.03184
G1 X59.721 Y196.028 E.633
G1 X58.985 Y196.028 E.03184
G1 X48.641 Y185.684 E.633
G1 X47.905 Y185.684 E.03184
G1 X58.249 Y196.028 E.633
G1 X57.513 Y196.028 E.03184
G1 X47.169 Y185.684 E.633
G1 X46.433 Y185.684 E.03184
G1 X56.777 Y196.028 E.633
G1 X56.041 Y196.028 E.03184
G1 X45.697 Y185.684 E.633
G1 X44.961 Y185.684 E.03184
G1 X55.306 Y196.028 E.633
G1 X54.57 Y196.028 E.03184
G1 X44.225 Y185.684 E.633
G1 X43.489 Y185.684 E.03184
G1 X53.834 Y196.028 E.633
G1 X53.098 Y196.028 E.03184
G1 X42.753 Y185.684 E.633
G1 X42.017 Y185.684 E.03184
G1 X52.362 Y196.028 E.633
G1 X51.626 Y196.028 E.03184
G1 X41.472 Y185.874 E.62134
G1 X41.472 Y186.61 E.03184
G1 X50.89 Y196.028 E.57631
G1 X50.154 Y196.028 E.03184
G1 X41.472 Y187.346 E.53128
G1 X41.472 Y188.082 E.03184
G1 X49.418 Y196.028 E.48624
G1 X48.682 Y196.028 E.03184
G1 X41.472 Y188.818 E.44121
G1 X41.472 Y189.554 E.03184
G1 X47.946 Y196.028 E.39618
G1 X47.21 Y196.028 E.03184
G1 X41.472 Y190.29 E.35114
G1 X41.472 Y191.026 E.03184
G1 X46.474 Y196.028 E.30611
G1 X45.738 Y196.028 E.03184
G1 X41.472 Y191.762 E.26108
G1 X41.472 Y192.498 E.03184
G1 X45.002 Y196.028 E.21604
G1 X44.267 Y196.028 E.03184
G1 X41.472 Y193.234 E.17101
G1 X41.472 Y193.969 E.03184
G1 X43.531 Y196.028 E.12597
G1 X42.795 Y196.028 E.03184
G1 X41.472 Y194.705 E.08094
G1 X41.472 Y195.441 E.03184
G1 X42.291 Y196.261 E.05015
M204 S3000
M106 S127.5
;LAYER_CHANGE
;Z:0.4
;HEIGHT:0.2
;BEFORE_LAYER_CHANGE
;0.4
;LAYER=1;
G92 E0
BEFORE_LAYER_CHANGE HEIGHT=0.4 LAYER=1

G1 Z.4 F18000
;AFTER_LAYER_CHANGE
;0.4
AFTER_LAYER_CHANGE
G1 X40.638 Y196.862
M204 S2000
;TYPE:Perimeter
;WIDTH:0.439999
G1 F6000
G1 X40.638 Y184.85 E.39659
G1 X84.65 Y184.85 E1.45314
G1 X84.65 Y196.862 E.39659
G1 X40.698 Y196.862 E1.45116
M204 S3000
G1 X40.241 Y197.259 F18000
M204 S2000
G1 F6000
G1 X40.241 Y184.453 E.42281
G1 X85.047 Y184.453 E1.47937
G1 X85.047 Y197.259 E.42281
G1 X40.301 Y197.259 E1.47738
M204 S3000
G1 X39.854 Y197.646 F18000
M204 S2000
;TYPE:External perimeter
;WIDTH:0.419999
G1 F2400
G1 X39.854 Y184.066 E.42579
G1 X85.434 Y184.066 E1.42913
G1 X85.434 Y197.646 E.42579
G1 X39.914 Y197.646 E1.42725
M204 S3000
G1 X40.02 Y197.282 F18000
G1 X83.7 Y196.723
M204 S4000
;TYPE:Solid infill
;WIDTH:0.443711
G1 F7200
G1 X84.332 Y196.091 E.02978
G1 X84.332 Y195.524 E.01889
G1 X83.312 Y196.544 E.04807
G1 X82.746 Y196.544 E.01889
G1 X84.332 Y194.957 E.07479
G1 X84.332 Y194.391 E.01889
G1 X82.179 Y196.544 E.1015
G1 X81.612 Y196.544 E.01889
G1 X84.332 Y193.824 E.12821
G1 X84.332 Y193.257 E.01889
G1 X81.045 Y196.544 E.15493
G1 X80.478 Y196.544 E.01889
G1 X84.332 Y192.69 E.18164
G1 X84.332 Y192.123 E.01889
G1 X79.912 Y196.544 E.20835
G1 X79.345 Y196.544 E.01889
G1 X84.332 Y191.557 E.23507
G1 X84.332 Y190.99 E.01889
G1 X78.778 Y196.544 E.26178
G1 X78.211 Y196.544 E.01889
G1 X84.332 Y190.423 E.28849
G1 X84.332 Y189.856 E.01889
G1 X77.644 Y196.544 E.31521
G1 X77.078 Y196.544 E.01889
G1 X84.332 Y189.289 E.34192
G1 X84.332 Y188.722 E.01889
G1 X76.511 Y196.544 E.36863
G1 X75.944 Y196.544 E.01889
G1 X84.332 Y188.156 E.39535
G1 X84.332 Y187.589 E.01889
G1 X75.377 Y196.544 E.42206
G1 X74.81 Y196.544 E.01889
G1 X84.332 Y187.022 E.44877
G1 X84.332 Y186.455 E.01889
G1 X74.243 Y196.544 E.47549
G1 X73.677 Y196.544 E.01889
G1 X84.332 Y185.888 E.5022
G1 X84.332 Y185.322 E.01889
G1 X73.11 Y196.544 E.52891
G1 X72.543 Y196.544 E.01889
G1 X83.919 Y185.168 E.53617
G1 X83.353 Y185.168 E.01889
G1 X71.976 Y196.544 E.53617
G1 X71.409 Y196.544 E.01889
G1 X82.786 Y185.168 E.53617
G1 X82.219 Y185.168 E.01889
G1 X70.843 Y196.544 E.53617
G1 X70.276 Y196.544 E.01889
G1 X81.652 Y185.168 E.53617
G1 X81.085 Y185.168 E.01889
G1 X69.709 Y196.544 E.53617
G1 X69.142 Y196.544 E.01889
G1 X80.519 Y185.168 E.53617
G1 X79.952 Y185.168 E.01889
G1 X68.575 Y196.544 E.53617
G1 X68.009 Y196.544 E.01889
G1 X79.385 Y185.168 E.53617
G1 X78.818 Y185.168 E.01889
G1 X67.442 Y196.544 E.53617
G1 X66.875 Y196.544 E.01889
G1 X78.251 Y185.168 E.53617
G1 X77.685 Y185.168 E.01889
G1 X66.308 Y196.544 E.53617
G1 X65.741 Y196.544 E.01889
G1 X77.118 Y185.168 E.53617
G1 X76.551 Y185.168 E.01889
G1 X65.175 Y196.544 E.53617
G1 X64.608 Y196.544 E.01889
G1 X75.984 Y185.168 E.53617
G1 X75.417 Y185.168 E.01889
G1 X64.041 Y196.544 E.53617
G1 X63.474 Y196.544 E.01889
G1 X74.851 Y185.168 E.53617
G1 X74.284 Y185.168 E.01889
G1 X62.907 Y196.544 E.53617
G1 X62.341 Y196.544 E.01889
G1 X73.717 Y185.168 E.53617
G1 X73.15 Y185.168 E.01889
G1 X61.774 Y196.544 E.53617
G1 X61.207 Y196.544 E.01889
G1 X72.583 Y185.168 E.53617
G1 X72.017 Y185.168 E.01889
G1 X60.64 Y196.544 E.53617
G1 X60.073 Y196.544 E.01889
G1 X71.45 Y185.168 E.53617
G1 X70.883 Y185.168 E.01889
G1 X59.507 Y196.544 E.53617
G1 X58.94 Y196.544 E.01889
G1 X70.316 Y185.168 E.53617
G1 X69.749 Y185.168 E.01889
G1 X58.373 Y196.544 E.53617
G1 X57.806 Y196.544 E.01889
G1 X69.183 Y185.168 E.53617
G1 X68.616 Y185.168 E.01889
G1 X57.239 Y196.544 E.53617
G1 X56.673 Y196.544 E.01889
G1 X68.049 Y185.168 E.53617
G1 X67.482 Y185.168 E.01889
G1 X56.106 Y196.544 E.53617
G1 X55.539 Y196.544 E.01889
G1 X66.915 Y185.168 E.53617
G1 X66.349 Y185.168 E.01889
G1 X54.972 Y196.544 E.53617
G1 X54.405 Y196.544 E.01889
G1 X65.782 Y185.168 E.53617
G1 X65.215 Y185.168 E.01889
G1 X53.839 Y196.544 E.53617
G1 X53.272 Y196.544 E.01889
G1 X64.648 Y185.168 E.53617
G1 X64.081 Y185.168 E.01889
G1 X52.705 Y196.544 E.53617
G1 X52.138 Y196.544 E.01889
G1 X63.514 Y185.168 E.53617
G1 X62.948 Y185.168 E.01889
G1 X51.571 Y196.544 E.53617
G1 X51.005 Y196.544 E.01889
G1 X62.381 Y185.168 E.53617
G1 X61.814 Y185.168 E.01889
G1 X50.438 Y196.544 E.53617
G1 X49.871 Y196.544 E.01889
G1 X61.247 Y185.168 E.53617
G1 X60.68 Y185.168 E.01889
G1 X49.304 Y196.544 E.53617
G1 X48.737 Y196.544 E.01889
G1 X60.114 Y185.168 E.53617
G1 X59.547 Y185.168 E.01889
G1 X48.171 Y196.544 E.53617
G1 X47.604 Y196.544 E.01889
G1 X58.98 Y185.168 E.53617
G1 X58.413 Y185.168 E.01889
G1 X47.037 Y196.544 E.53617
G1 X46.47 Y196.544 E.01889
G1 X57.846 Y185.168 E.53617
G1 X57.28 Y185.168 E.01889
G1 X45.903 Y196.544 E.53617
G1 X45.336 Y196.544 E.01889
G1 X56.713 Y185.168 E.53617
G1 X56.146 Y185.168 E.01889
G1 X44.77 Y196.544 E.53617
G1 X44.203 Y196.544 E.01889
G1 X55.579 Y185.168 E.53617
G1 X55.012 Y185.168 E.01889
G1 X43.636 Y196.544 E.53617
G1 X43.069 Y196.544 E.01889
G1 X54.446 Y185.168 E.53617
G1 X53.879 Y185.168 E.01889
G1 X42.502 Y196.544 E.53617
G1 X41.936 Y196.544 E.01889
G1 X53.312 Y185.168 E.53617
G1 X52.745 Y185.168 E.01889
G1 X41.369 Y196.544 E.53617
G1 X40.956 Y196.544 E.01376
G1 X40.956 Y196.39 E.00513
G1 X52.178 Y185.168 E.52891
G1 X51.612 Y185.168 E.01889
G1 X40.956 Y195.823 E.5022
G1 X40.956 Y195.257 E.01889
G1 X51.045 Y185.168 E.47548
G1 X50.478 Y185.168 E.01889
G1 X40.956 Y194.69 E.44877
G1 X40.956 Y194.123 E.01889
G1 X49.911 Y185.168 E.42206
G1 X49.344 Y185.168 E.01889
G1 X40.956 Y193.556 E.39534
G1 X40.956 Y192.989 E.01889
G1 X48.778 Y185.168 E.36863
G1 X48.211 Y185.168 E.01889
G1 X40.956 Y192.423 E.34192
G1 X40.956 Y191.856 E.01889
G1 X47.644 Y185.168 E.3152
G1 X47.077 Y185.168 E.01889
G1 X40.956 Y191.289 E.28849
G1 X40.956 Y190.722 E.01889
G1 X46.51 Y185.168 E.26178
G1 X45.944 Y185.168 E.01889
G1 X40.956 Y190.155 E.23506
G1 X40.956 Y189.589 E.01889
G1 X45.377 Y185.168 E.20835
G1 X44.81 Y185.168 E.01889
G1 X40.956 Y189.022 E.18164
G1 X40.956 Y188.455 E.01889
G1 X44.243 Y185.168 E.15492
G1 X43.676 Y185.168 E.01889
G1 X40.956 Y187.888 E.12821
G1 X40.956 Y187.321 E.01889
G1 X43.11 Y185.168 E.1015
G1 X42.543 Y185.168 E.01889
G1 X40.956 Y186.755 E.07478
G1 X40.956 Y186.188 E.01889
G1 X41.976 Y185.168 E.04807
G1 X41.409 Y185.168 E.01889
G1 X40.777 Y185.8 E.02978
M204 S3000
;LAYER_CHANGE
;Z:0.6
;HEIGHT:0.2
;BEFORE_LAYER_CHANGE
;0.6
;LAYER=2;
G92 E0
BEFORE_LAYER_CHANGE HEIGHT=0.6 LAYER=2

G1 Z.6 F18000
;AFTER_LAYER_CHANGE
;0.6
AFTER_LAYER_CHANGE
G1 X40.638 Y184.85
M204 S2000
;TYPE:Perimeter
;WIDTH:0.439999
G1 F6000
G1 X84.65 Y184.85 E1.45314
G1 X84.65 Y196.862 E.39659
G1 X40.638 Y196.862 E1.45314
G1 X40.638 Y184.91 E.39461
M204 S3000
G1 X40.241 Y184.453 F18000
M204 S2000
G1 F6000
G1 X85.047 Y184.453 E1.47937
G1 X85.047 Y197.259 E.42281
G1 X40.241 Y197.259 E1.47937
G1 X40.241 Y184.513 E.42083
M204 S3000
G1 X39.854 Y184.066 F18000
M204 S2000
;TYPE:External perimeter
;WIDTH:0.419999
G1 F2400
G1 X85.434 Y184.066 E1.42913
G1 X85.434 Y197.646 E.42579
G1 X39.854 Y197.646 E1.42913
G1 X39.854 Y184.126 E.42391
M204 S3000
G1 X40.252 Y184.105 F18000
G1 X83.7 Y184.989
M204 S4000
;TYPE:Solid infill
;WIDTH:0.443711
G1 F7200
G1 X84.332 Y185.621 E.02978
G1 X84.332 Y186.188 E.01889
G1 X83.312 Y185.168 E.04807
G1 X82.746 Y185.168 E.01889
G1 X84.332 Y186.755 E.07479
G1 X84.332 Y187.321 E.01889
G1 X82.179 Y185.168 E.1015
